X:1
T:Title
%%score ( 1 2 ) { 3 | 4 }
L:1/8
Q:1/4=93
M:4/4
K:Bb
V:1 treble nm="Grand Piano, Soprano"
V:2 treble 
V:3 bass nm="Choir Pad, My Reward, Nina Clarke"
V:4 bass 
V:1
 [DF][DF][DF][DF] [DF][DF] [DB]2 | [DB] [Fd]2 [Ec]- [Ec] [DB]3 | [FA][EG][EG][EG] [EG][EG] [=Ec]2 | %3
w: By~J.~M.~Pierce * * * * * *|||
 [=EB] [FA]2 [EG]- [EG] F3 | [DF][DB][DB][DB] [DB][Fd] [DB]2 | [FA][EG][EG][EG] [EG][EG] [Gc]2 | %6
w: |||
 [GB][FA][FA][FA] [FA][FA] [EA]2 | [EG] [DF]2 [EA]- [EA] [DB]3 | z d2 d- d/ z/ d3 | %9
w: |||
 z B2 B- B/ z/ B3 | [EG][DF][DF][DF] [DF][DB] [FB]2 | [Fc] [Fd]2 [Fd]- [Fd] [Fc]3 | %12
w: |||
 z d2 d- d/ z/ d3 | z B2 B- B/ z/ B3 | [EG][DF][DF][FB] [Gc][Fd] [Fd]2 | z d2 c- c/ z/ z z2 | z8 |] %17
w: |||||
V:2
 x8 | x8 | x8 | x8 | x8 | x8 | x8 | x8 | [DB]FFF FF F2 | [^Fc]GGG GG G2 | x8 | x8 | [DB]FFF FF F2 | %13
 [^Fc]GGG GG G2 | x8 | [DB]FFF E [DB]3- | [DB]4 z4 |] %17
V:3
 F,B,B,B, B,B, F,2 | B, B,2 A,- A, B,3 | B,B,B,B, B,B, B,2 | D C2 B,- B, A,3 | B,B,B,B, B,B, B,2 | %5
 B,B,B,B, B,B,[K:treble] E2 | ECCC CC C2 | B, B,2 C- C B,3 | B,B,B,B, B,B, B,2 | %9
 B,B,B,[K:treble]E EE E2 | B,[K:bass]B,B,B, B,B, B,2 | A, B,2 B,- B,/ z/ A,3 | B,B,B,B, B,B, B,2 | %13
 B,B,B,[K:treble]E EE E2 | B,[K:bass]B,B,B, B,B, B,2 | B,B,B,A, A, B,3- | B,4 z4 |] %17
V:4
 B,,B,,B,,B,, B,,B,, B,,2 | B,, F,2 F,- F, B,,3 | D,E,E,E, E,E, C,2 | C, C,2 C,- C, F,3 | %4
 B,,B,,B,,B,, B,,B,, B,,2 | D,E,E,E, E,E, E,2 | E,F,F,F, F,F, F,2 | F, F,2 F,- F, B,,3 | z8 | %9
 D,E,E,E, E,E, E,2 | E,B,,B,,B,, B,,B,, D,2 | .F,2 z2 z F,3 | z8 | D,E,E,E, E,E, E,2 | %14
 E,B,,B,,D, E,F, F,2 | G, F,2 F,- F,/ z/ B,,3- | B,,4 z4 |] %17

